Adwaita++/actions/16/format-add-node.svg

<svg height="16" viewBox="0 0 16 16" width="16" xmlns="http://www.w3.org/2000/svg">
  <path d="m3.5 1a2.5 2.5 0 0 0 -2.5 2.5 2.5 2.5 0 0 0 2 2.4492188v.0507812 4h-2v5h5v-2h2v-1h-2v-2h-2v-4-.0546875a2.5 2.5 0 0 0 1.9492188-1.9453125h.0507812 4v2h2v2h1v-2h2v-5h-5v2h-4-.0546875a2.5 2.5 0 0 0 -2.4453125-2zm7.5 8v2h-2v2h2v2h2v-2h2v-2h-2v-2z" fill="#474747"/>
</svg>

<svg xmlns="http://www.w3.org/2000/svg" width="16" height="16" viewBox="0 0 16 16">
 <defs>
  <style id="current-color-scheme" type="text/css">
   .ColorScheme-Text { color:#474747; } .ColorScheme-Highlight { color:#4285f4; }
  </style>
 </defs>
 <path style="fill:currentColor" class="ColorScheme-Text" d="M 3.5 1 A 2.5 2.5 0 0 0 1 3.5 A 2.5 2.5 0 0 0 3 5.9492188 L 3 6 L 3 10 L 1 10 L 1 15 L 6 15 L 6 13 L 8 13 L 8 12 L 6 12 L 6 10 L 4 10 L 4 6 L 4 5.9453125 A 2.5 2.5 0 0 0 5.9492188 4 L 6 4 L 10 4 L 10 6 L 12 6 L 12 8 L 13 8 L 13 6 L 15 6 L 15 1 L 10 1 L 10 3 L 6 3 L 5.9453125 3 A 2.5 2.5 0 0 0 3.5 1 z M 11 9 L 11 11 L 9 11 L 9 13 L 11 13 L 11 15 L 13 15 L 13 13 L 15 13 L 15 11 L 13 11 L 13 9 L 11 9 z"/>
</svg>
